!!!COM: Chopin, Fr&egrave;d&egrave;ric
!!!OTL: Waltz in A-flat major
!!!SCT: Op. 69/1
**kern	**kern
*staff2	*staff1
*Ipiano	*Ipiano
*clefF4	*clefG2
*k[b-e-a-d-]	*k[b-e-a-d-]
*M3/4	*M3/4
*^	*^
4r	4r	8ee-\L	4r
.	.	8ddn\J	.
=1	=1	=1	=1
2.F\	4r	12dd-\L	2.r
.	.	12ee-\	.
.	.	12dd-\J	.
.	4A-\ 4d-\	8cc\L	.
.	.	8dd-\J	.
.	4A-\ 4d-\	8ff\L	.
.	.	8ee-\J	.
=2	=2	=2	=2
2.En\	4r	2dd-\	2.r
.	4G\ 4d-\	.	.
.	4G\ 4c\	4cc\	.
=3	=3	=3	=3
!!linebreak:original
2.E-\	4r	4r	2.r
.	4G-\ 4c\	8an/L	.
.	.	8b-/J	.
.	4G-\ 4c\	12cc\L	.
.	.	12ee-\	.
.	.	12dd-\J	.
=4	=4	=4	=4
2.D-\	4r	2cc\	2.r
.	4F\ 4B-\	.	.
.	4F\ 4B-\	4b-\	.
=5	=5	=5	=5
2.Dn\	4r	4.b-\	2.r
.	4F\ 4B-\	.	.
.	.	8a-/	.
.	4F\ 4c-\	12a-/L	.
.	.	12g/	.
.	.	12f/J	.
=6	=6	=6	=6
2.E-\	4r	2f/	2.r
.	4A-\ 4c\	.	.
.	4A-\ 4c\	4e-/	.
=7	=7	=7	=7
4EE-/	2.r	8r	2.r
.	.	16r	.
.	.	32r	.
.	.	32e-'/	.
4d-\	.	8gg\L	.
.	.	8ff\J	.
4d-\	.	8ee-\L	.
.	.	8dd-\J	.
=8	=8	=8	=8
4AA-/	2.r	2cc-\	2.r
4c\	.	.	.
4c\	.	[4ccn\	.
=9	=9	=9	=9
!!pagebreak:original
2.F\	4r	8cc\L]	2.r
.	.	8dd-\J	.
.	4A-\ 4d-\	8bb-\L	.
.	.	8aa-\J	.
.	4A-\ 4d-\	8ff\L	.
.	.	8dd-\J	.
=10	=10	=10	=10
2.En\	4r	2dd-\	2.r
.	4G\ 4d-\	.	.
.	4G\ 4c\	4cc\	.
=11	=11	=11	=11
2.E-\	4r	20an/LL	2.r
.	.	20b-/	.
.	.	20a/	.
.	.	20a-/	.
.	.	20an/JJ	.
.	4G-\ 4c\	12cc\L	.
.	.	12ee-\	.
.	.	12ff\J	.
.	4G-\ 4c\	8.gg-'\L	.
.	.	32a'\LL	.
.	.	32a'\JJJ	.
=12	=12	=12	=12
2.D-\	4r	2cc\	2.r
.	4F\ 4c\	.	.
.	4F\ 4B-\	4b-\	.
=13	=13	=13	=13
2.Dn\	4r	4.b-\	2.r
.	4F\ 4B-\	.	.
.	.	8a-/	.
.	4F\ 4c-\	12a-/L	.
.	.	12g/	.
.	.	12f/J	.
=14	=14	=14	=14
4EE-/	2.r	2f/	2.r
4c\	.	.	.
4c\	.	4e-/	.
=15	=15	=15	=15
!!linebreak:original
4EE-/	2.r	2.r	12e-/L
.	.	.	12f/
.	.	.	12e-/J
4d-\	.	.	8dn/L
.	.	.	8e-/J
4d-\	.	.	8f/L 8dd-/
.	.	.	8g/J 8cc/
=16	=16	=16	=16
4AA-/	2.r	2.r	2a-/
4c\	.	.	.
4r	.	.	8ee-\L
.	.	.	8ddn\J
=17	=17	=17	=17
2.F\	4r	12dd-\L	2.r
.	.	12ee-\	.
.	.	12dd-\J	.
.	4A-\ 4d-\	8cc\L	.
.	.	8dd-\J	.
.	4A-\ 4d-\	8ff\L	.
.	.	8ee-\J	.
=18	=18	=18	=18
2.En\	4r	2dd-\	2.r
.	4G\ 4d-\	.	.
.	4G\ 4c\	4cc\	.
=19	=19	=19	=19
2.E-\	4r	4r	2.r
.	4G-\ 4c\	8an/L	.
.	.	8b-/J	.
.	4G-\ 4c\	16cc\	.
.	.	32r	.
.	.	32ee-'\LKK	.
.	.	8dd-\J	.
=20	=20	=20	=20
2.D-\	4r	2cc\	2.r
.	4F\ 4c\	.	.
.	4F\ 4B-\	4b-\	.
=21	=21	=21	=21
!!pagebreak:original
2.Dn\	4r	4.b-\	2.r
.	4F\ 4B-\	.	.
.	.	8a-/	.
.	4F\ 4c-\	12a-/L	.
.	.	12g/	.
.	.	12f/J	.
=22	=22	=22	=22
2.E-\	4r	2f/	2.r
.	4A-\ 4c\	.	.
.	4A-\ 4c\	4e-/	.
=23	=23	=23	=23
4EE-/	2.r	8r	2.r
.	.	16r	.
.	.	32r	.
.	.	32e-'/	.
4d-\	.	8gg\L	.
.	.	8ff\J	.
4d-\	.	8ee-\L	.
.	.	8dd-\J	.
=24	=24	=24	=24
4AA-/	2.r	2cc-\	2.r
4c\	.	.	.
4c\	.	[4ccn\	.
=25	=25	=25	=25
2.F\	4r	8cc\L]	2.r
.	.	16dd-\Jk	.
.	.	32r	.
.	.	32dd-'\	.
.	4A-\ 4d-\	8bb-\L	.
.	.	8aa-\J	.
.	4A-\ 4d-\	8ff\L	.
.	.	8dd-\J	.
=26	=26	=26	=26
2.En\	4r	2dd-\	2.r
.	4G\ 4d-\	.	.
.	4G\ 4c\	4cc\	.
=27	=27	=27	=27
!!linebreak:original
*	*	*^	*
2.E-\	4r	4r	24an\LL	2.r
.	.	.	48b-\JJk	.
.	.	.	64r	.
.	.	.	32a\LLL	.
.	.	.	[64a-\K	.
.	.	.	32a-\]	.
.	.	.	32an\J	.
.	.	.	24b-\	.
.	.	.	[48cc-\L	.
.	4G-\ 4c\	8r	64cc-\K]	.
.	.	.	32.ccn\	.
.	.	.	32dd-\	.
.	.	.	32ddn\JJJ	.
.	.	32r	64r	.
.	.	.	32.ee-'\	.
.	.	64r	.	.
.	.	[64een/LLLL	.	.
.	.	64ee/JJJJ]	48r	.
.	.	64r	.	.
.	.	.	24ff\	.
.	.	32r	.	.
.	4G-\ 4c\	4r	8.gg-'\L	.
.	.	.	32a'\LL	.
.	.	.	32a'\JJJ	.
*	*	*v	*v	*
=28	=28	=28	=28
2.D-\	4r	2cc\	2.r
.	4F\ 4c\	.	.
.	4F\ 4B-\	4b-\	.
=29	=29	=29	=29
!!pagebreak:original
2.Dn\	4r	4.b-\	2.r
.	4F\ 4B-\	.	.
.	.	8a-/	.
.	4F\ 4c-\	12a-/L	.
.	.	12g/	.
.	.	12f/J	.
=30	=30	=30	=30
4EE-/	2.r	2f/	2.r
4c\	.	.	.
4c\	.	4e-/	.
=31	=31	=31	=31
4EE-/	2.r	2.r	12e-/L
.	.	.	12f/
.	.	.	12e-/J
4d-\	.	.	8dn/L
.	.	.	8e-/J
4d-\	.	.	8f/L 8dd-/
.	.	.	8g/J 8cc/
=32	=32	=32	=32
4AA-/	2.r	2.r	2a-/
4c\	.	.	.
4r	.	.	8cc\L
.	.	.	8cc-\J
=33	=33	=33	=33
*clefG2	*	*	*
2.f/	4.B-\	12b-\L	2.r
.	.	12cc\	.
.	.	12b-\J	.
.	.	8an/L	.
.	8dn\	8b-/J	.
.	4d\	8b-\L	.
.	.	8bb-\J	.
=34	=34	=34	=34
!!linebreak:original
2.e-/	4r	8.ccc\L	2.r
.	.	16bb-\Jk	.
.	8r	8gg\L	.
.	8B-\	8ee-\J	.
.	4B-\	4b-\	.
=35	=35	=35	=35
2.dn/	4.A-\	12b-\L	2.r
.	.	12cc\	.
.	.	12b-\J	.
.	.	8an/L	.
.	8B-\	8b-/J	.
.	4B-\	8b-\L	.
.	.	8bb-\J	.
=36	=36	=36	=36
2.e-/	4r	8.ccc\L	2.r
.	.	16bb-\Jk	.
.	8r	8gg\L	.
.	8B-\	8ee-\J	.
.	4B-\	4b-\	.
=37	=37	=37	=37
2.f/	4.B-\	12b-\L	2.r
.	.	12cc\	.
.	.	12b-\J	.
.	.	8an/L	.
.	8dn\	8b-/J	.
.	4d\	8b-\L	.
.	.	8bb-\J	.
=38	=38	=38	=38
2.e-/	4r	8.ccc\L	2.r
.	.	16bb-\Jk	.
.	8r	8gg\L	.
.	8B-\	8ee-\J	.
.	4B-\	4b-\	.
=39	=39	=39	=39
!!pagebreak:original
2.r	4BB-/	12b-\L	2.r
.	.	12cc\	.
.	.	12b-\J	.
.	4A-\ 4dn\	8an/L	.
.	.	8b-/J	.
.	4B-\ 4d\	8aa-\L	.
.	.	8gg\J	.
=40	=40	=40	=40
2.r	4E-\	4.ff\	2.r
*	*clefG2	*	*
.	4G/ 4e-/	.	.
.	.	8ee-\	.
.	4B-/ 4e-/	8g/L	.
.	.	8a-/J	.
=41	=41	=41	=41
2.f/	4.B-/	12b-\L	2.r
.	.	12cc\	.
.	.	12b-\J	.
.	.	8an/L	.
.	8dn/	8b-/J	.
.	4d/	16b-\LK	.
.	.	8.bb-\J	.
=42	=42	=42	=42
2.e-/	4r	8.ccc'\L	2.r
.	.	16bb-\Jk	.
.	8r	8gg\L	.
*	*clefF4	*	*
.	8B-\	8ee-\J	.
.	4B-\	4b-\	.
=43	=43	=43	=43
2.dn/	4.A-\	12b-\L	2.r
.	.	12cc\	.
.	.	12b-\J	.
.	.	8an/L	.
.	8B-\	8b-/J	.
.	4B-\	16b-\LK	.
.	.	8.bb-\J	.
=44	=44	=44	=44
!!linebreak:original
2.e-/	4r	8.ccc'\L	2.r
.	.	16bb-\Jk	.
.	8r	8gg\L	.
.	8B-\	8ee-\J	.
.	4B-\	4b-\	.
=45	=45	=45	=45
2.f/	4.B-\	12b-\L	2.r
.	.	12cc\	.
.	.	12b-\J	.
.	.	8an/L	.
.	8dn\	8b-/J	.
.	4d\	16b-\LK	.
.	.	8.bb-\J	.
=46	=46	=46	=46
2.e-/	4r	8.ccc'\L	2.r
.	.	16bb-\Jk	.
.	8r	8gg\L	.
.	8B-\	8ee-\J	.
.	4B-\	4b-\	.
=47	=47	=47	=47
2.r	4BB-/	12b-\L	2.r
.	.	12cc\	.
.	.	12b-\J	.
.	4A-\ 4dn\	8an/L	.
.	.	8b-/J	.
.	4B-\ 4d\	8aa-\L	.
.	.	8gg\J	.
=48	=48	=48	=48
2.r	4E-\	4.ff\	2.r
.	4G\ 4e-\	.	.
.	.	8een\	.
.	4B-\ 4e-\	8ee-\L	.
.	.	8ddn\J	.
=49	=49	=49	=49
!!pagebreak:original
*clefF4	*	*	*
2.F\	4r	12dd-\L	2.r
.	.	12ee-\	.
.	.	12dd-\J	.
.	4A-\ 4d-\	8cc\L	.
.	.	8dd-\J	.
.	4A-\ 4d-\	8ff\L	.
.	.	8ee-\J	.
=50	=50	=50	=50
2.En\	4r	2dd-\	2.r
.	4G\ 4d-\	.	.
.	4G\ 4c\	4cc\	.
=51	=51	=51	=51
2.E-\	4r	4r	2.r
.	4G-\ 4c\	8an/L	.
.	.	8b-/J	.
.	4G-\ 4c\	16cc\	.
.	.	32r	.
.	.	32ee-'\LKK	.
.	.	8dd-\J	.
=52	=52	=52	=52
2.D-\	4r	2cc\	2.r
.	4F\ 4c\	.	.
.	4F\ 4B-\	4b-\	.
=53	=53	=53	=53
2.Dn\	4r	4.b-\	2.r
.	4F\ 4B-\	.	.
.	.	8a-/	.
.	4F\ 4c-\	12a-/L	.
.	.	12g/	.
.	.	12f/J	.
=54	=54	=54	=54
2.E-\	4r	2f/	2.r
.	4A-\ 4c\	.	.
.	4A-\ 4c\	4e-/	.
=55	=55	=55	=55
!!linebreak:original
4EE-/	2.r	8r	2.r
.	.	16r	.
.	.	32r	.
.	.	32e-'/	.
4d-\	.	8gg\L	.
.	.	8ff\J	.
4d-\	.	8ee-\L	.
.	.	8dd-\J	.
=56	=56	=56	=56
4AA-/	2.r	2cc-\	2.r
4c\	.	.	.
4c\	.	[4ccn\	.
=57	=57	=57	=57
2.F\	4r	8cc\L]	2.r
.	.	16dd-\Jk	.
.	.	32r	.
.	.	32dd-'\	.
.	4A-\ 4d-\	8bb-\L	.
.	.	8aa-\J	.
.	4A-\ 4d-\	8ff\L	.
.	.	8dd-\J	.
=58	=58	=58	=58
2.En\	4r	2dd-\	2.r
.	4G\ 4d-\	.	.
.	4G\ 4c\	4cc\	.
=59	=59	=59	=59
!!pagebreak:original
2.E-\	4r	4r	2.r
.	4G-\ 4c\	4r	.
.	4G-\ 4c\	8.gg-'\L	.
.	.	16a\Jk	.
=60	=60	=60	=60
2.D-\	4r	2cc\	2.r
.	4F\ 4c\	.	.
.	4F\ 4B-\	4b-\	.
=61	=61	=61	=61
2.Dn\	4r	4.b-\	2.r
.	4F\ 4B-\	.	.
.	.	8a-/	.
.	4F\ 4c-\	12a-/L	.
.	.	12g/	.
.	.	12f/J	.
=62	=62	=62	=62
!!linebreak:original
4EE-/	2.r	2f/	2.r
4c\	.	.	.
4c\	.	4e-/	.
=63	=63	=63	=63
4EE-/	2.r	2.r	12e-/L
.	.	.	12f/
.	.	.	12e-/J
4d-\	.	.	8dn/L
.	.	.	8e-/J
4d-\	.	.	8f/L 8dd-/
.	.	.	8g/J 8cc/
=64	=64	=64	=64
4AA-/	2.r	2.r	2a-/
4c\	.	.	.
4r	.	.	8cc\L
.	.	.	8cc-\J
=65	=65	=65	=65
4AA-/	2.r	2.r	2a-/
4c\	.	.	.
4r	.	.	4dd-\ 4ff\
=66	=66	=66	=66
4EE-/	4r	4r	2b-\ 2dd-\
4G\	2G\	2d-/	.
4E-\	.	.	12f/L
.	.	.	12g/
.	.	.	12f/J
=67	=67	=67	=67
2.r	4AA-/	2.r	4c/ 4e-/
.	4A-\	.	4a-\ 4cc\
.	4E-\	.	4b-\ 4dd-\
=68	=68	=68	=68
4EE-/	4r	4r	2g/ 2b-/
4B-\	2B-\	2d-/	.
4E-\	.	.	12f/L
.	.	.	12g/
.	.	.	12f/J
=69	=69	=69	=69
!!pagebreak:original
2.r	4AA-/	2.r	4c/ 4e-/
.	4A-\	.	4a-\ 4cc\
.	4E-\	.	4dd-\ 4ff\
=70	=70	=70	=70
4EE-/	4r	4r	2b-\ 2dd-\
4G\	2G\	2d-/	.
4E-\	.	.	12f/L
.	.	.	12g/
.	.	.	12f/J
=71	=71	=71	=71
2.r	4AA-/	2.r	4c/ 4e-/
.	4A-\	.	4a-\ 4cc\
.	4E-\	.	4b-\ 4dd-\
=72	=72	=72	=72
4EE-/	4r	4r	2g/ 2b-/
4B-\	2B-\	2d-/	.
4E-\	.	.	12f/L
.	.	.	12g/
.	.	.	12f/J
=73	=73	=73	=73
2.r	4AA-/	2.r	2c/ 2e-/
.	4A-\	.	.
.	4E-\	.	4dd-\ 4ff\
=74	=74	=74	=74
4EE-/	4r	4r	2b-\ 2dd-\
4G\	2G\	2d-/	.
4E-\	.	.	12f/L
.	.	.	12g/
.	.	.	12f/J
=75	=75	=75	=75
2.r	4AA-/	2.r	4c/ 4e-/
.	4A-\	.	4a-\ 4cc\
.	4E-\	.	4b-\ 4dd-\
=76	=76	=76	=76
4EE-/	4r	4r	2g/ 2b-/
4B-\	2B-\	2d-/	.
4E-\	.	.	12f/L
.	.	.	12g/
.	.	.	12f/J
=77	=77	=77	=77
!!linebreak:original
2.r	4AA-/	2.r	4c/ 4e-/
.	4A-\	.	4a-\ 4cc\
.	4E-\	.	4dd-\ 4ff\
=78	=78	=78	=78
4EE-/	4r	4r	2b-\ 2dd-\
4G\	2G\	2d-/	.
4E-\	.	.	12f/L
.	.	.	12g/
.	.	.	12f/J
=79	=79	=79	=79
2.r	4AA-/	2.r	4c/ 4e-/
.	4A-\	.	4a-\ 4cc\
.	4E-\	.	4b-\ 4dd-\
=80	=80	=80	=80
4EE-/	4r	4r	2g/ 2b-/
4B-\	2B-\	2d-/	.
4E-\	.	.	12f/L
.	.	.	12g/
.	.	.	12f/J
=81	=81	=81	=81
2.r	2AA-/	2.r	2c/ 2e-/
.	4r	.	4cc\
=82	=82	=82	=82
2.r	4C\ 4G\	2.r	4en/ 4cc/
.	2C\ 2G\	.	4e/ 4cc/
.	.	.	8cc-\L
.	.	.	8ccn\J
=83	=83	=83	=83
2.r	4C-\ 4A-\	2.r	4f/ 4dd-/
.	2C-\ 2A-\	.	4f/ 4dd-/
.	.	.	8cc\L
.	.	.	8dd-\J
=84	=84	=84	=84
2.r	4BB-\ 4B-\	2.r	4f/ 4ddn/
.	2BB-\ 2B-\	.	4f/ 4dd/
.	.	.	8cc\L
.	.	.	8dd\J
=85	=85	=85	=85
!!pagebreak:original
2.r	4E-\ 4B-\	2.r	4g\ 4ee-\
.	2E-\ 2B-\	.	4g\ 4ee-\
.	.	.	8ddn\L
.	.	.	8ee-\J
=86	=86	=86	=86
2.r	4C\ 4c\	2.r	4g\ 4een\
.	2C\ 2c\	.	4g\ 4ee\
.	.	.	8ddn\L
.	.	.	8ee\J
=87	=87	=87	=87
2.r	4F\ 4c\	2.r	4a-\ 4ff\
.	2F\ 2c\	.	4a-\ 4ff\
.	.	.	8een\L
.	.	.	8ff\J
=88	=88	=88	=88
2.r	4E-\ 4e-\	2.r	4b-\ 4gg\
.	2E-\ 2e-\	.	4b-\ 4gg\
.	.	.	8ff\L
.	.	.	8gg\J
=89	=89	=89	=89
2.r	4A-\ 4e-\	2.r	4cc\ 4aa-\
.	4G'\ 4e-'\	.	4dd-'\ 4bb-'\
.	4r	.	4dd-\ 4ff\
=90	=90	=90	=90
4EE-/	4r	4r	2b-\ 2dd-\
4G\	2G\	2d-/	.
4E-\	.	.	12f/L
.	.	.	12g/
.	.	.	12f/J
=91	=91	=91	=91
2.r	4AA-/	2.r	4c/ 4e-/
.	4A-\	.	4a-\ 4cc\
.	4E-\	.	4b-\ 4dd-\
=92	=92	=92	=92
!!linebreak:original
4EE-/	4r	4r	2g/ 2b-/
4B-\	2B-\	2d-/	.
4E-\	.	.	12f/L
.	.	.	12g/
.	.	.	12f/J
=93	=93	=93	=93
2.r	4AA-/	2.r	4c/ 4e-/
.	4A-\	.	4a-\ 4cc\
.	4E-\	.	4dd-\ 4ff\
=94	=94	=94	=94
4EE-/	4r	4r	2b-\ 2dd-\
4G\	2G\	2d-/	.
4E-\	.	.	12f/L
.	.	.	12g/
.	.	.	12f/J
=95	=95	=95	=95
2.r	4AA-/	2.r	4c/ 4e-/
.	4A-\	.	4a-\ 4cc\
.	4E-\	.	4b-\ 4dd-\
=96	=96	=96	=96
4EE-/	4r	4r	2g/ 2b-/
4B-\	2B-\	2d-/	.
4E-\	.	.	12f/L
.	.	.	12g/
.	.	.	12f/J
=97	=97	=97	=97
2.r	2AA-/	2.r	2c/ 2e-/
.	4r	.	4cc\
=98	=98	=98	=98
2.r	4C\ 4G\	2.r	4en/ 4cc/
.	2C\ 2G\	.	4e/ 4cc/
.	.	.	8cc-\L
.	.	.	8ccn\J
=99	=99	=99	=99
2.r	4C-\ 4A-\	2.r	4f/ 4dd-/
.	2C-\ 2A-\	.	4f/ 4dd-/
.	.	.	8cc\L
.	.	.	8dd-\J
=100	=100	=100	=100
!!pagebreak:original
2.r	4BB-\ 4B-\	2.r	4f/ 4ddn/
.	2BB-\ 2B-\	.	4f/ 4dd/
.	.	.	8cc\L
.	.	.	8dd\J
=101	=101	=101	=101
2.r	4E-\ 4B-\	2.r	4g\ 4ee-\
.	2E-\ 2B-\	.	4g\ 4ee-\
.	.	.	8ddn\L
.	.	.	8ee-\J
=102	=102	=102	=102
2.r	4C\ 4c\	2.r	4g\ 4een\
.	2C\ 2c\	.	4g\ 4ee\
.	.	.	8ddn\L
.	.	.	8ee\J
=103	=103	=103	=103
2.r	4F\ 4c\	2.r	4a-\ 4ff\
.	2F\ 2c\	.	4a-\ 4ff\
.	.	.	8een\L
.	.	.	8ff\J
=104	=104	=104	=104
2.r	4E-\ 4e-\	2.r	4b-\ 4gg\
.	2E-\ 2e-\	.	4b-\ 4gg\
.	.	.	8ff\L
.	.	.	8gg\J
=105	=105	=105	=105
2.r	4A-\ 4e-\	2.r	4cc\ 4aa-\
.	4G'\ 4e-'\	.	4dd-'\ 4bb-'\
.	4r	.	4dd-\ 4ff\
=106	=106	=106	=106
4EE-/	4r	4r	2b-\ 2dd-\
4G\	2G\	2d-/	.
4E-\	.	.	12f/L
.	.	.	12g/
.	.	.	12f/J
=107	=107	=107	=107
!!linebreak:original
2.r	4AA-/	2.r	4c/ 4e-/
.	4A-\	.	4a-\ 4cc\
.	4E-\	.	4b-\ 4dd-\
=108	=108	=108	=108
4EE-/	4r	4r	2g/ 2b-/
4B-\	2B-\	2d-/	.
4E-\	.	.	12f/L
.	.	.	12g/
.	.	.	12f/J
=109	=109	=109	=109
2.r	4AA-/	2.r	4c/ 4e-/
.	4A-\	.	4a-\ 4cc\
.	4E-\	.	4dd-\ 4ff\
=110	=110	=110	=110
4EE-/	4r	4r	2b-\ 2dd-\
4G\	2G\	2d-/	.
4E-\	.	.	12f/L
.	.	.	12g/
.	.	.	12f/J
=111	=111	=111	=111
2.r	4AA-/	2.r	4c/ 4e-/
.	4A-\	.	4a-\ 4cc\
.	4E-\	.	4b-\ 4dd-\
=112	=112	=112	=112
4EE-/	4r	4r	2g/ 2b-/
4B-\	2B-\	2d-/	.
4E-\	.	.	12f/L
.	.	.	12g/
.	.	.	12f/J
=113	=113	=113	=113
2AA-/	2.r	2.r	2c/ 2e-/
4r	.	.	8ee-\L
.	.	.	8ddn\J
=114	=114	=114	=114
!!pagebreak:original
2.F\	4r	12dd-\L	2.r
.	.	12ee-\	.
.	.	12dd-\J	.
.	4A-\ 4d-\	8cc\L	.
.	.	8dd-\J	.
.	4A-\ 4d-\	8ff\L	.
.	.	8ee-\J	.
=115	=115	=115	=115
2.En\	4r	2dd-\	2.r
.	4G\ 4d-\	.	.
.	4G\ 4c\	4cc\	.
=116	=116	=116	=116
2.E-\	4r	4r	2.r
.	4G-\ 4c\	8an/L	.
.	.	8b-/J	.
.	4G-\ 4c\	16cc\	.
.	.	32r	.
.	.	32ee-\LKK	.
.	.	8dd-\J	.
=117	=117	=117	=117
2.D-\	4r	2cc\	2.r
.	4F\ 4c\	.	.
.	4F\ 4B-\	4b-\	.
=118	=118	=118	=118
2.Dn\	4r	4.b-\	2.r
.	4F\ 4B-\	.	.
.	.	8a-/	.
.	4F\ 4c-\	12a-/L	.
.	.	12g/	.
.	.	12f/J	.
=119	=119	=119	=119
2.E-\	4r	2f/	2.r
.	4A-\ 4c\	.	.
.	4A-\ 4c\	4e-/	.
=120	=120	=120	=120
!!linebreak:original
4EE-/	2.r	8r	2.r
.	.	16r	.
.	.	32r	.
.	.	32e-/	.
4d-\	.	8gg\L	.
.	.	8ff\J	.
4d-\	.	8ee-\L	.
.	.	8dd-\J	.
=121	=121	=121	=121
4AA-/	2.r	2cc-\	2.r
4c\	.	.	.
4c\	.	[4ccn\	.
=122	=122	=122	=122
2.F\	4r	8cc\L]	2.r
.	.	16dd-\Jk	.
.	.	32r	.
.	.	32dd-\	.
.	4A-\ 4d-\	8bb-\L	.
.	.	8aa-\J	.
.	4A-\ 4d-\	8ff\L	.
.	.	8dd-\J	.
=123	=123	=123	=123
2.En\	4r	2dd-\	2.r
.	4G\ 4d-\	.	.
.	4G\ 4c\	4cc\	.
=124	=124	=124	=124
!!pagebreak:original
2.E-\	4r	24an\LL	2.r
.	.	24b-\	.
.	.	24a\	.
.	.	24a-\	.
.	.	24an\	.
.	.	24cc\JJ	.
.	4G-\ 4c\	24ee-\LL	.
.	.	24gg-\	.
.	.	24aan\	.
.	.	24ccc\	.
.	.	24eee-\	.
.	.	24fff\JJ	.
.	4G-\ 4c\	8.ggg-'\L	.
.	.	32a\LL	.
.	.	32a\JJJ	.
=125	=125	=125	=125
2.D-\	4r	2cc\	2.r
.	4F\ 4c\	.	.
.	4F\ 4B-\	4b-\	.
=126	=126	=126	=126
2.Dn\	4r	4.b-\	2.r
.	4F\ 4B-\	.	.
.	.	8a-/	.
.	4F\ 4c-\	12a-/L	.
.	.	12g/	.
.	.	12f/J	.
=127	=127	=127	=127
4EE-/	2.r	2f/	2.r
4c\	.	.	.
4c\	.	4e-/	.
=128	=128	=128	=128
!!linebreak:original
4EE-/	2.r	2.r	12e-/L
.	.	.	12f/
.	.	.	12e-/J
4d-\	.	.	8dn/L
.	.	.	8e-/J
4d-\	.	.	8f/L 8dd-/
.	.	.	8g/J 8cc/
=129	=129	=129	=129
4AA-/	2.r	2.r	2a-/
4c\	.	.	.
4r	.	.	4r
*v	*v	*	*
*	*v	*v
==	==
*-	*-
